X:1
T:033 - Nasceu Jesus
T:Letra: Robert Hawkey Moreton (1844-1917)
T:MÃºsica: Robert Lowry (1826-1899)
M:6/8
L:1/8
K:Abmaj
V:1
"Ab"ECD E2z | ECD E2z | AGF EDC | "Eb7"E3 D2z | DB,C D2z | DB,C D2z | DB,C DFE | "Ab"C3 "Eb7"E3 | "Ab"ECD E2z | ECD E2z | E=DE AGA | "Db"B3 F2z | B2A G2F | "Ab"ECE A3 | "Bb7"G2E F2=D | "Eb"E3- E2z | E3 B,2E | G3 E2z | "Bb7"FEF G2F | "Eb"E3 B,2z | G3 E2G | B3 G3 | "Bb7"FEF G2F | "Eb7"E3-E3 || "Ab"ECD E2z | ECD E2z | E=DE AGA | "Db"B3 F2z | B2A G2F | "Ab"E2A Hc2 c | "Bbm"B2B "Eb7"GFG | "Ab"A3-A3 |]
w:1.~Nas-ce Je-sus, fon-te de luz! Des-cem os an-jos can-tan-do; Nas-ce Je-sus, Ã© nos-sa luz; Tre-vas vem, pois, dis-si-pan-do. Nas-ce Je-sus, fon-te de luz! Rom-peas ca-dei-as do for-te, Rai-ao di-a da sal-va-Ã§Ã£o, tri-un-fan-te vem!_ Sal-ve Je-sus! Oh, fir-ma teu jus-toim-pÃ©-rio! Gra-to lou-vor os ho-mens eos an-jos dÃªem!_ Nas-ce Je-sus, fon-te de luz! Oh! GlÃ³-riaa Deus nas al-tu-ras! Paz na ter-raaos ho_mens, A quem quer e_le bem!_
w:2.~Deus nos a-mou e nos man-dou Cris-to, seu Fi-lho que-ri-do. Deus nos a-mou, Deus en-car-nou! Ve-deo me-ni-no nas-ci-do! Deus nos a-mou! Deus nos a-mou! Di-gam-no to-dos os po-vos; Go-zam paz e sal_va-Ã§Ã£o to-dos os que crÃªem._ Rei-no ben-di-to! Rei-no dea-mor di-vi-no! Eis queas na-Ã§Ãµes res-ga-te por Cris-to tÃªm!_
W:
W:
W:1. Nasce Jesus, fonte de luz!
W:Descem os anjos cantando;
W:Nasce Jesus, Ã© nossa luz;
W:Trevas vem, pois, dissipando.
W:Nasce Jesus, fonte de luz!
W:Rompe as cadeias do forte,
W:Raia o dia da salvaÃ§Ã£o, triunfante vem!
W:Salve Jesus! Oh, firma teu justo impÃ©rio!
W:Grato louvor os homens e os anjos dÃªem!
W:
W:(Estribilho)
W:Nasce Jesus, fonte de luz!
W:Oh! GlÃ³ria a Deus nas alturas!
W:Paz na terra aos homens, 
W:A quem quer ele bem!
W:
W:
W:
W:2. Deus nos amou e nos mandou
W:Cristo, seu Filho querido.
W:Deus nos amou, Deus encarnou!
W:Vede o menino nascido!
W:Deus nos amou! Deus nos amou!
W:Digam-no todos os povos;
W:Gozam paz e salvaÃ§Ã£o todos os que crÃªem.
W:Reino bendito! Reino de amor divino!
W:Eis que as naÃ§Ãµes resgate por Cristo tÃªm!
W:
W:

